X:1
T:Truman, CMD
T:Truman, CMD
T:Joseph Perry Holbrook (1822-1888)
T:Public Domain Courtesy of the Cyber Hymnal™
C:Joseph Perry Holbrook (1822-1888)
Z:Public Domain
Z:Courtesy of the Cyber Hymnal™
%%score ( 1 2 ) ( 3 4 )
L:1/8
Q:1/4=145
M:6/4
K:C
V:1 treble 
V:2 treble 
V:3 bass 
V:4 bass 
V:1
 [EG]2 | [Ee]4 [EB]2 (d2 c2) [FA]2 | [EG]4 [CE]2 [EG]4 [EG]2 | [FA]4 [B,D]2 ([CE]2 [DF]2) [FA]2 | %4
 [EG]6- [EG]4 [EG]2 | [Ee]4 [EB]2 (d2 c2) [FA]2 | [EG]4 [CE]2 [EG]4 [_EA]2 | %7
 [DB]4 [Gd]2 (A2 c2) [D=F]2 | [DG]6- [DG]4 [EG]2 | [FA]4 [B,D]2 ([CE]2 [DF]2) [FA]2 | %10
 [EG]4 [^D^F]2 [EG]4 [EG]2 | [FA]4 [B,D]2 ([CE]2 [FA]2) [EG]2 | [CE]6- [CE]4 [EG]2 | %13
 [Ee]4 [EB]2 (d2 c2) [FA]2 | [EG]4 [CE]2 [EG]4 [Gc]2 | %15
 (c3 A) [DF]2 ([CE]2 !fermata![B,A]2) [B,G]2 | C6- C4 |] %17
V:2
 x2 | x6 F4 x2 | x12 | x12 | x12 | x6 F4 x2 | x12 | x6 ^F4 x2 | x12 | x12 | x12 | x12 | x12 | %13
 x6 F4 x2 | x12 | F4 x8 | C6- C4 |] %17
V:3
 [C,G,]2 | [C,G,]4 [C,^G,]2 [C,A,]4 [C,B,]2 | [C,C]4 [C,G,]2 [C,C]4 [C,C]2 | %3
 [G,,B,]4 [G,,B,]2 [G,,G,]4 [G,,B,]2 | [C,C]6- [C,C]4 [C,G,]2 | [C,G,]4 [C,^G,]2 [C,A,]4 [C,B,]2 | %6
 [C,C]4 [C,G,]2 [C,G,]4 [C,C]2 | [D,B,]4 [D,B,]2 (C2 A,2) [D,C]2 | [G,,B,]6- [G,,B,]4 [G,C]2 | %9
 [G,,B,]4 [G,,D]2 (C2 B,2) [G,B,]2 | [C,C]4 [C,A,]2 [C,G,]4 [C,C]2 | %11
 [G,B,]4 [G,D]2 (C2 B,2) [G,,B,]2 | [C,G,]6- [C,G,]4 [C,G,]2 | [C,G,]4 [C,^G,]2 [C,A,]4 [C,B,]2 | %14
 [C,C]4 [C,G,]2 [C,G,]4 [E,_B,]2 | (A,3 C) [F,A,]2 !fermata!G,4 [G,,F,]2 | [C,E,]6- [C,E,]4 |] %17
V:4
 x2 | x12 | x12 | x12 | x12 | x12 | x12 | x6 D,4 x2 | x12 | x6 G,4 x2 | x12 | x6 G,4 x2 | x12 | %13
 x12 | x12 | F,4 G,4 x4 | x10 |] %17

